!!!COM: Janáček, Leoš [Leo Eugen]
!!!OTL: Moravská lidová poesie v písních (Moravian Folk Poetry in Songs) for Voice and Piano
!!!OMV: No. 21: Tiha (Quiet)
!!!example: 124
!!!work: Jan-15
**kern	**kern	**dynam	**kern
*part2	*part2	*part2	*part1
*staff3	*staff2	*	*staff1
*I"Piano	*	*	*I"Soprano Solo
*I'Pno.	*	*	*I'S. Solo
*clefF4	*clefG2	*	*clefG2
*k[f#c#]	*k[f#c#]	*	*k[f#c#]
*D:	*D:	*	*D:
*M2/4	*M2/4	*	*M2/4
*MM121	*MM121	*	*MM121
=1	=1	=1	=1
16BB	8r	pp p	2r
16r	.	.	.
4F# 4B 4d	(16.bLL	.	.
.	32cc#JJk	.	.
.	16ddLL	.	.
.	16ff#	.	.
16F# 16B 16d	16cc#	.	.
16r	16bJJ	.	.
=2	=2	=2	=2
8r	4.f#	.	2r
4F# 4B 4d	.	.	.
16F# 16B 16d	16f#)	.	.
16r	16r	.	.
=3	=3	=3	=3
8r	[4.f#	.	6dd
4B 4d	.	.	.
.	.	.	3cc#
16B 16d	16f#^]	.	.
16r	16r	.	.
=4	=4	=4	=4
8r	[4.f#	.	6b
4B 4d	.	.	.
.	.	.	3a
16B 16d	16f#]	.	.
16r	16r	.	.
=5	=5	=5	=5
8r	[4.f#	.	3dd
4B 4d	.	.	.
.	.	.	6ee
16B 16d	16f#]	.	.
16r	16r	.	.
=6	=6	=6	=6
*^	*^	*	*
8r	4r	8r	4.f#	sf	6ff#
4F# 4B 4d	.	16.bLL	.	.	.
.	.	.	.	.	(3ee
.	.	32cc#JJk	.	.	.
.	8r	16ddLL	.	.	.
.	.	16ff#	.	.	.
16F# 16d	[8B	16cc#	16f#	.	.
16r	.	16bJJ	16r	.	.
*	*	*v	*v	*	*
.	.	.	.	8qcc#/
=7	=7	=7	=7	=7
8ryy	16B]	16f#	.	6b)
.	16r	16r	.	.
4AA 4G	8ryy	4c# 4f# 4a	.	.
.	.	.	.	3cc#
.	4ryy	.	.	.
16AA 16G	.	16c# 16f# 16a	.	.
16r	.	16r	.	.
=8	=8	=8	=8	=8
8ryy	16DD	8r	.	3a
.	16r	.	.	.
4D 4F# 4A	8ryy	4d 4f# 4a	>	.
.	4ryy	.	.	.
.	.	.	.	6a
16D 16F# 16A	.	16d 16f# 16a	.	.
16r	.	16r	]	.
*v	*v	*	*	*
=9	=9	=9	=9
16GG	8g	mf p	6g
16r	.	.	.
4G 4B	4.f#	.	.
.	.	.	3f#
16G 16B	.	.	.
16r	.	.	.
.	32qqb/	.	.
.	32qqg/	.	.
.	32qqf#/	.	.
=10	=10	=10	=10
.	16qqe/	.	.
.	16qqf#/	.	.
8r	8e	.	6e
4G 4B	4.d	.	.
.	.	.	3d
16G 16B	.	.	.
16r	.	.	.
.	8qB/	.	.
=11	=11	=11	=11
8r	4.g	.	3g
4G 4B	.	.	.
.	.	.	6f#
16G 16B	8a	.	.
16r	.	.	.
=12	=12	=12	=12
*^	*^	*	*
16E	4ryy	8r	4.b	.	6b
16r	.	.	.	.	.
4B 4e 4g	.	16.eeLL	.	p	.
.	.	.	.	.	(3g
.	.	32ff#JJk	.	.	.
.	8ryy	16ggLL	.	.	.
.	.	16bb	.	.	.
16B 16g	[8e	16ff#	16b	.	.
16r	.	16eeJJ	16r	.	.
*	*	*v	*v	*	*
.	.	.	.	8qf#/
=13	=13	=13	=13	=13
8ryy	16e]	16b	p	6e)
.	16ryy	16r	.	.
4AA	8ryy	4G 4c# 4f#	.	.
.	.	.	.	3f#
.	4ryy	.	.	.
16AAA	.	16G 16c# 16f#	.	.
16r	.	16r	.	.
*v	*v	*	*	*
=14	=14	=14	=14
16BBB	8r	p	3d
16r	.	.	.
4BB	4F# 4B 4d 4f#	.	.
.	.	.	6d
16BB	16F# 16B 16d 16f#	.	.
16r	16r	.	.
=	=	=	=
*-	*-	*-	*-
!!!system-decoration: s1{(s2,s3)}
!!!CDT: 1854/07/03-1928/08/12
!!!CBL: Hukvaldy, Moravia
!!!CDL: Moravaská Ostrava, Czech Republic
!!!CNT: Czech
!!!AGN: Vocal; Solo
!!!MCN:
!!!MDT:
!!!MGN:
!!!MLC:
!!!MPD: unknown
!!!MPN: unknown
!!!ODT: 1901
!!!PDT: 1908
!!!excerpt-start-measure: 1
!!!excerpt-end-measure: 14
!!!excerpt-start-time: 0:00
!!!excerpt-end-time: 0:24
!!!EEV: 2020/01/22
!!!ONB: Converted from MusicXML on 2020/01/22
